X: 022
M: 6/8
L: 1/8
K: F
V: 1
|: A/B/ |\
cdc ABA | cdc A2B | cde fga | gGG G2A |\
cdc ABA | c2b a2g | fed cAf | cAF F2 :|
V: 2 clef=bass middle=d
z |\
f3 f3 | f3 f3 | f3 a2f | c'3 c2z |
f3 f3 | a2g f2e | d2B c2z | f3 F2 :|
|: z |\
f3 F3 | f3 F3 | c'2b a2f | c'3 c2z |
f3 F3 | a2g f2e | d2B c3 | f3 F2 :|


